X:1
T:Title
L:1/8
M:4/4
K:C
V:1 treble nm="Grand Piano"
V:1
 z4 z2[Q:1/4=100] E2 | F2 G2 A2 GF | F2 E4 E2 | F2 GG AGFE | D6 D2 | E2 FF G2 F2 | DE D4 D2 | %7
 E2 FF G2 F2 | E6 A2 | B2 cc dd A2 | B2 A4 A2 | B2 c2 d2 (3cdc | B6 G2 | A2 B2 c2 B2 | %14
 A2 G2 G2 G2 | ^G2 G2 A2 A2 | A B3- B2 A2 | B2 cc dd A2 | B2 A4 A2 | B2 c2 d2 (3cdc | B6 G2 | %21
 A2 B2 c2 B2 | A2 G2 G2 G2 | ^G2 E2 c2 B2 | A6 z2 |] %25

